icon_installer/data/icons/scalable/actions/show-source-pick-symbolic.svg

<?xml version="1.0" encoding="UTF-8"?>
<svg height="16px" viewBox="0 0 16 16" width="16px" xmlns="http://www.w3.org/2000/svg">
    <g fill="#222222">
        <path d="m 11.5 10.933594 c -2.5 0 -2.5 0.5 -2.5 0.5 c 0 0.5 0.5 0.5 0.5 0.5 h 4 c 0.5 0 0.5 -0.5 0.5 -0.5 s 0 -0.5 -2.5 -0.5 z m 0 0"/>
        <path d="m 9.1875 2 c -1.195312 0 -2.1875 0.992188 -2.1875 2.1875 v 3.644531 c 0 1.195313 0.992188 2.191407 2.1875 2.191407 h 4.625 c 1.195312 0 2.1875 -0.996094 2.1875 -2.191407 v -3.644531 c 0 -1.195312 -0.992188 -2.1875 -2.1875 -2.1875 z m 0 2 h 4.625 c 0.121094 0 0.1875 0.066406 0.1875 0.1875 v 3.644531 c 0 0.121094 -0.066406 0.191407 -0.1875 0.191407 h -4.625 c -0.121094 0 -0.1875 -0.070313 -0.1875 -0.191407 v -3.644531 c 0 -0.121094 0.066406 -0.1875 0.1875 -0.1875 z m 0 0"/>
        <path d="m 11.46875 12.96875 l -3 3 h 6 z m 0 0"/>
        <path d="m 1.914062 5 c -0.507812 0 -0.914062 0.40625 -0.914062 0.914062 v 3.171876 c 0 0.507812 0.40625 0.914062 0.914062 0.914062 h 3.171876 c 0.507812 0 0.914062 -0.40625 0.914062 -0.914062 v -3.171876 c 0 -0.507812 -0.40625 -0.914062 -0.914062 -0.914062 z m 0.085938 2 h 3 v 2 h -3 z m 0 0"/>
    </g>
</svg>

<svg xmlns="http://www.w3.org/2000/svg" width="16" height="16"><path fill="#222" d="M11.5 10.934c-2.5 0-2.5.5-2.5.5 0 .5.5.5.5.5h4c.5 0 .5-.5.5-.5s0-.5-2.5-.5zM9.188 2A2.204 2.204 0 0 0 7 4.188v3.644c0 1.195.992 2.191 2.188 2.191h4.624A2.207 2.207 0 0 0 16 7.832V4.188A2.204 2.204 0 0 0 13.812 2zm0 2h4.624c.122 0 .188.066.188.188v3.644c0 .121-.066.191-.188.191H9.189c-.122 0-.188-.07-.188-.191V4.188C9 4.066 9.066 4 9.188 4zm2.281 8.969-3 3h6zM1.914 5A.91.91 0 0 0 1 5.914v3.172a.91.91 0 0 0 .914.914h3.172A.91.91 0 0 0 6 9.086V5.914A.91.91 0 0 0 5.086 5zM2 7h3v2H2zm0 0"/></svg>
